public/assets/images/others/icon/02.svg

<svg width="40" height="40" viewBox="0 0 40 40" fill="none" xmlns="http://www.w3.org/2000/svg">
<path d="M35.6299 10.1703L20.6299 1.4203C20.4387 1.30877 20.2213 1.25 20 1.25C19.7787 1.25 19.5613 1.30877 19.3701 1.4203L4.37012 10.1703C4.18142 10.2804 4.02486 10.438 3.91605 10.6275C3.80724 10.8169 3.74999 11.0316 3.75 11.25V28.75C3.74999 28.9685 3.80724 29.1832 3.91605 29.3726C4.02486 29.5621 4.18142 29.7197 4.37012 29.8298L19.3701 38.5798C19.5613 38.6913 19.7787 38.7501 20 38.7501C20.2213 38.7501 20.4387 38.6913 20.6299 38.5798L35.6299 29.8298C35.8186 29.7197 35.9751 29.5621 36.084 29.3726C36.1928 29.1832 36.25 28.9685 36.25 28.75V11.25C36.25 11.0316 36.1928 10.8169 36.084 10.6275C35.9751 10.438 35.8186 10.2804 35.6299 10.1703ZM20 3.94717L32.5195 11.25L20 18.5529L7.4805 11.25L20 3.94717ZM6.25 13.4265L18.75 20.7178V35.3236L6.25 28.0323V13.4265ZM21.25 35.3236V20.7178L33.75 13.4265V28.0323L21.25 35.3236Z" fill="#525252"/>
<path d="M35.6299 10.1703L20.6299 1.4203C20.4387 1.30877 20.2213 1.25 20 1.25C19.7787 1.25 19.5613 1.30877 19.3701 1.4203L4.37012 10.1703C4.18142 10.2804 4.02486 10.438 3.91605 10.6275C3.80724 10.8169 3.74999 11.0316 3.75 11.25V28.75C3.74999 28.9685 3.80724 29.1832 3.91605 29.3726C4.02486 29.5621 4.18142 29.7197 4.37012 29.8298L19.3701 38.5798C19.5613 38.6913 19.7787 38.7501 20 38.7501C20.2213 38.7501 20.4387 38.6913 20.6299 38.5798L35.6299 29.8298C35.8186 29.7197 35.9751 29.5621 36.084 29.3726C36.1928 29.1832 36.25 28.9685 36.25 28.75V11.25C36.25 11.0316 36.1928 10.8169 36.084 10.6275C35.9751 10.438 35.8186 10.2804 35.6299 10.1703ZM20 3.94717L32.5195 11.25L20 18.5529L7.4805 11.25L20 3.94717ZM6.25 13.4265L18.75 20.7178V35.3236L6.25 28.0323V13.4265ZM21.25 35.3236V20.7178L33.75 13.4265V28.0323L21.25 35.3236Z" fill="#132A64"/>
</svg>

<svg xmlns="http://www.w3.org/2000/svg" width="40" height="40" fill="none" viewBox="0 0 40 40"><path fill="#525252" d="m35.63 10.17-15-8.75a1.25 1.25 0 0 0-1.26 0l-15 8.75a1.25 1.25 0 0 0-.62 1.08v17.5a1.25 1.25 0 0 0 .62 1.08l15 8.75a1.25 1.25 0 0 0 1.26 0l15-8.75a1.25 1.25 0 0 0 .62-1.08v-17.5a1.25 1.25 0 0 0-.62-1.08M20 3.947l12.52 7.303L20 18.553 7.48 11.25zm-13.75 9.48 12.5 7.29v14.607l-12.5-7.292zm15 21.897V20.718l12.5-7.291v14.605z"/><path fill="#132a64" d="m35.63 10.17-15-8.75a1.25 1.25 0 0 0-1.26 0l-15 8.75a1.25 1.25 0 0 0-.62 1.08v17.5a1.25 1.25 0 0 0 .62 1.08l15 8.75a1.25 1.25 0 0 0 1.26 0l15-8.75a1.25 1.25 0 0 0 .62-1.08v-17.5a1.25 1.25 0 0 0-.62-1.08M20 3.947l12.52 7.303L20 18.553 7.48 11.25zm-13.75 9.48 12.5 7.29v14.607l-12.5-7.292zm15 21.897V20.718l12.5-7.291v14.605z"/></svg>
